!!!OTL: Vom Osterlamb, so Christus der Herr gessen vor sein h. Passion
!!!ARE: Europa, Mitteleuropa, Deutschland
!!!SCT: A0547
!!!YEM: Copyright 1995, estate of Helmut Schaffrath.
**kern
*ICvox
*Ivox
*M4/1
*k[b-e-]
*g:
{2g
=1
1g
1g
1.dd
2cc
=2
2dd
2cc
1b-
1a
2r}
{2b-
=3
2cc
2cc
2cc
2cc
1cc
2dd
2cc
=4
1b-
1a
1g
2r}
{2dd
=5
1dd
2cc
2b-
1a
1cc
=6
2a
2fn
1g
1fn
2r}
{2a
=7
1b-
2a
2g
1b-
1cc
=8
1dd
1dd
1.g}
{2a
=9
1b-
1cc
1dd
1cc
=10
2b-
2cc
1a
1.g}
==
!!!AGN: Romanze, Ballade, Lied, religioeses Lied
!! Variante von A0375.
!!!ONB: ESAC (Essen Associative Code) Database: ALTDEU
!!!AMT: simple quadruple
!!!AIN: vox
!!!EED: Helmut Schaffrath
!!!EEV: 1.0
*-
